!!!COM: Scriabin, Alexander
!!!OTL@@FR: Étude en si bémol mineur
!!!OTL@@EN: Etude in Bb Minor
!!!OPR@@FR: 12 Études
!!!OPR@@EN: 12 Etudes
!!!OPS: 8
!!!ONM: 7
!!!ODT: 1894
!!!AGN: Etude
**kern	**kern	**dynam
*staff2	*staff1	*staff1/2
*Ipiano	*Ipiano	*
*clefF4	*clefG2	*
*k[b-e-a-d-g-]	*k[b-e-a-d-g-]	*
*b-:	*b-:	*
*M4/4	*M4/4	*
*met(c)	*met(c)	*
*Xtuplet	*	*
12r	4r	.
12FL	.	.
12BB-	.	.
=1	=1	=1
12d-J	8b- 8ff 8bb-	.
12B-L	.	.
.	8r	.
12F	.	.
12d-J 12b-	8a- 8dd- 8aa-	.
12G-L	.	.
.	8r	.
12BB-	.	.
12d-J	8g- 8b- 8gg-	.
12B-L	.	.
.	8r	.
12G-	.	.
12d-J 12b-	8f 8dd- 8ff	.
12GnL	.	.
.	8r	.
12BB-	.	.
=2	=2	=2
12cJ	8en 8b- 8een	.
12B-L	.	.
.	8r	.
12Gn	.	.
12enJ	8c 8b- 8cc	.
12G-XL	.	.
.	8r	.
12BB-	.	.
12c-XJ	8e-X 8an 8ee-X	.
12AnL	.	.
.	8r	.
12G-	.	.
12e-XJ	8c-X 8a 8cc-X	.
12FL	.	.
.	8r	.
12BB-	.	.
=3	=3	=3
12B-J	4d- 4b- 4dd-	.
12B-L	.	.
12F	.	.
12fJ	4d- 4a- 4dd-	.
12BB-\L	.	.
12EEn	.	.
12G-J	4d- 4b- 4dd-	.
12G-L	.	.
12D-	.	.
12d-J	4cn 4g- 4ccn	.
12BB-L	.	.
12FF	.	.
!!LO:LB:g=original
=4	=4	=4
12G-J	4d- 4b- 4dd-	.
12FL	.	.
12D-	.	.
12d-J	4c 4f 4cc	.
12BB-\L	.	.
12GG-	.	.
12G-J	4B- 4en 4b-	.
12EnL	.	.
12C	.	.
12cJ	4r	.
12FFL	.	.
12BBB-	.	.
=5	=5	=5
12D-J	8b- 8ff 8bb-	.
12B-L	.	.
.	8r	.
12F	.	.
12d-J 12b-	8a- 8dd- 8aa-	.
12G-L	.	.
.	8r	.
12BB-	.	.
12d-J	8g- 8b- 8gg-	.
12B-L	.	.
.	8r	.
12G-	.	.
12d-J 12b-	8f 8dd- 8ff	.
12GnL	.	.
.	8r	.
12BB-	.	.
=6	=6	=6
12cJ	8en 8b- 8een	.
12B-L	.	.
.	8r	.
12Gn	.	.
12enJ	8c 8b- 8cc	.
12G-XL	.	.
.	8r	.
12BB-	.	.
12c-XJ	8e-X 8an 8ee-X	.
12AnL	.	.
.	8r	.
12G-	.	.
12e-XJ	8c-X 8a 8cc-X	.
12FL	.	.
.	8r	.
12BB-	.	.
!!LO:LB:g=original
=7	=7	=7
12B-J	4d- 4b- 4dd-	.
12B-L	.	.
12F	.	.
12fJ	4d- 4a- 4dd-	.
12D-L	.	.
12BB--	.	.
12B--J	4d- 4g- 4dd-	.
12G-L	.	.
12D-	.	.
12d-J	4e- 4dd- 4ee-	.
12D-L	.	.
12AA-	.	.
=8	=8	=8
12A-J	4f 4dd- 4ff	.
12A-L	.	.
12D-	.	.
12d-J	4e- 4a- 4ee-	.
12D-L	.	.
12BB--	.	.
12B--J	2d- 2g- 2dd-	.
12G-L	.	.
12D-	.	.
12d-J	.	.
12D-L	.	.
12AA-	.	.
=9	=9	=9
12A-J	8f 8dd- 8ff	.
12A-L	.	.
.	8r	.
12D-	.	.
12d-J	8e- 8a- 8ee-	.
12D-L	.	.
.	8r	.
12AA-	.	.
12A-J	8f 8dd- 8ff	.
12A-L	.	.
.	8r	.
12D-	.	.
12d-J	8e- 8a- 8ee-	.
=||	=||	=||
*k[]	*k[]	*
12C#XL	.	.
.	8r	.
12FF#X	.	.
!!LO:LB:g=original
=10	=10	=10
12AJ	8e#X 8cc#X 8ee#X	.
12AL	.	.
.	8r	.
12D#X	.	.
12c#XJ	8d#X 8a 8dd#X	.
12C#X\L	.	.
.	8r	.
12FF#X	.	.
12AJ	8c#X 8a 8cc#	.
12AL	.	.
.	8r	.
12D#	.	.
12d#XJ	8B#X 8f#X 8b#X	.
12AAL	.	.
.	8r	.
12EE	.	.
=11	=11	=11
12EJ	8c#X 8a 8cc#X	.
12E/L	.	.
.	8r	.
12AA	.	.
12AJ	8Bn 8e 8bn	.
12AAL	.	.
.	8r	.
12EE	.	.
12EJ	8c# 8a 8cc#	.
12E/L	.	.
.	8r	.
12AA	.	.
12AJ	8B 8e 8b	.
12AAL	.	.
.	8r	.
12DD	.	.
=12	=12	=12
12FJ	8c#X 8a 8cc#X	.
12FL	.	.
.	8r	.
12BB	.	.
12AJ	8B 8f 8b	.
12AAL	.	.
.	8r	.
12DD	.	.
12FJ	8A 8f 8a	.
12FL	.	.
.	8r	.
12BB	.	.
12BJ	8G#X 8d 8g#X	.
12CnL	.	.
.	8r	.
12CC	.	.
!!LO:LB:g=original
=13||	=13||	=13||
*k[b-e-a-d-g-]	*k[b-e-a-d-g-]	*
12FJ	8An 8f 8an	.
12FL	.	.
.	8r	.
12C	.	.
12cJ	8c 8a 8cc	.
12CL	.	.
.	8r	.
12FF	.	.
12FJ	8f 8a 8ff	.
12FL	.	.
.	8r	.
12C	.	.
12cJ	8f 8a 8ff	.
12D-L	.	.
.	8r	.
12CC	.	.
=14	=14	=14
12G-J	8f 8dd- 8ff	.
12E-L	.	.
.	8r	.
12D-	.	.
12d-J	8e- 8b- 8ee-	.
12D-\L	.	.
.	8r	.
12FF	.	.
12G-J	8d- 8b- 8dd-	.
12E-L	.	.
.	8r	.
12D-	.	.
12d-J	8B- 8g- 8b-	.
12CL	.	.
.	8r	.
12CC	.	.
=15	=15	=15
12FJ	8An 8f 8an	.
12FL	.	.
.	8r	.
12C	.	.
12cJ	8c 8a 8cc	.
12CL	.	.
.	8r	.
12FF	.	.
12FJ	8f 8a 8ff	.
12FL	.	.
.	8r	.
12C	.	.
12cJ	8f 8a 8ff	.
12FL	.	.
.	8r	.
12C-X	.	.
!!LO:LB:g=original
=16	=16	=16
12e-J	4f 4an 4ff	.
12AnL	.	.
12F	.	.
12e-J	2a 2ff 2aan	.
12FL	.	.
12C-X	.	.
12e-J	.	.
12AL	.	.
12F	.	.
12e-J	4a 4ff 4aa	.
12FL	.	.
12BB-	.	.
=17	=17	=17
12d-J	8b- 8ff 8bb-	.
12B-L	.	.
.	8r	.
12F	.	.
12d-J 12b-	8a- 8dd- 8aa-	.
12G-L	.	.
.	8r	.
12BB-	.	.
12d-J	8g- 8b- 8gg-	.
12B-L	.	.
.	8r	.
12G-	.	.
12d-J 12b-	8f 8dd- 8ff	.
12GnL	.	.
.	8r	.
12BB-	.	.
=18	=18	=18
12cJ	8en 8b- 8een	.
12B-L	.	.
.	8r	.
12Gn	.	.
12enJ	8c 8b- 8cc	.
12G-XL	.	.
.	8r	.
12BB-	.	.
12c-XJ	8e-X 8an 8ee-X	.
12AnL	.	.
.	8r	.
12G-	.	.
12e-XJ	8c-X 8a 8cc-X	.
12FL	.	.
.	8r	.
12BB-	.	.
!!LO:LB:g=original
=19	=19	=19
12B-J	8d- 8b- 8dd-	.
12B-L	.	.
.	8r	.
12F	.	.
12fJ	8d- 8a- 8dd-	.
12BB-L	.	.
.	8r	.
12EEn	.	.
12G-J	8d- 8b- 8dd-	.
12G-L	.	.
.	8r	.
12D-	.	.
12d-J	8c 8g- 8cc	.
12BB-L	.	.
.	8r	.
12FF	.	.
=20	=20	=20
12G-J	8d- 8b- 8dd-	.
12FL	.	.
.	8r	.
12D-	.	.
12d-J	8c 8f 8cc	.
12BB-L	.	.
.	8r	.
12GG-	.	.
12G-J	8d- 8b- 8dd-	.
12EnL	.	.
.	8r	.
12C	.	.
12cJ	8c 8en 8cc	.
12FFL	.	.
.	8r	.
12BBB-	.	.
=21	=21	=21
12D-J	8B- 8f 8b-	.
12BB-L	.	.
.	8r	.
12FF	.	.
12FJ	8A- 8d- 8a-	.
12EE-L	.	.
.	8r	.
12BBB-	.	.
12BB-J	8G- 8d- 8g-	.
12BB-L	.	.
.	8r	.
12FF	.	.
12FJ	8F 8B- 8f	.
12FFL	.	.
.	8r	.
12BBB-	.	.
*	*clefF4	*
!!LO:LB:g=original
=22	=22	=22
12BB-J	8D- 8B- 8d-	.
12BB-L	.	.
.	8r	.
12FF	.	.
12FJ	8D- 8B-	.
12FFL	.	.
.	8r	.
12BBB-	.	.
12BB-J	8D- 8B- 8d-	.
12BB-L	.	.
.	8r	.
12FF	.	.
12FJ	8D- 8B-	.
12FFL	.	.
.	8r	.
12BBB-	.	.
*	*clefG2	*
=23	=23	=23
12D-J	8B- 8f 8b-	.
12BB-L	.	.
.	8r	.
12FF	.	.
12FJ	8A- 8d- 8a-	.
12EE-L	.	.
.	8r	.
12BBB-	.	.
12BB-J	8G- 8d- 8g-	.
12BB-L	.	.
.	8r	.
12FF	.	.
12FJ	8F 8B- 8f	.
12FFL	.	.
.	8r	.
12BBB-	.	.
*	*clefF4	*
=24	=24	=24
12BB-J	8D- 8B- 8d-	.
12BB-L	.	.
.	8r	.
12FF	.	.
12FJ	8D- 8B-	.
12FFL	.	.
.	8r	.
12BBB-	.	.
12BB-J	8D- 8B- 8d-	.
12BB-L	.	.
.	8r	.
12FF	.	.
12FJ	8D- 8B-	.
12r	.	.
.	8r	.
12r	.	.
!!LO:LB:g=original
=25	=25	=25
4r	4r	.
12r	4r	.
12FFL	.	.
12BBB-	.	.
12BB-J	8D- 8B- 8d-	.
12BB-L	.	.
.	8r	.
12FF	.	.
12FJ	8D- 8B-	.
12r	.	.
.	8r	.
12r	.	.
=26	=26	=26
12r	4r	.
12FFL	.	.
12BBB-	.	.
12BB-J	8D- 8B- 8d-	.
12r	.	.
.	8r	.
12r	.	.
12r	4r	.
12BB-L	.	.
12FF	.	.
12FJ	8D- 8B-	.
12r	.	.
.	8r	.
12r	.	.
=27||	=27||	=27||
*k[b-e-a-d-g-c-]	*k[b-e-a-d-g-c-]	*
*tuplet	*tuplet	*
2BBB- 2BB-	2D- 2G- 2d-	.
[2AAAn [2AAn	[2E- [2G- [2d- [2e-	.
=28	=28	=28
2AAA] 2AA]	6E-] 6G-] 6d-] 6e-]	.
*	*clefG2	*
.	6F 6d- 6f	.
.	6G- 6d- 6g-	.
4BBB- 4BB-	6d- 6g- 6dd-	.
.	6A- 6d- 6a-	.
4BBB-- 4BB--	.	.
.	6G- 6d- 6g-	.
*	*clefF4	*
!!LO:LB:g=original
=29	=29	=29
6BBB-- 6BB--	4F 4d- 4f	.
6AAA- 6AA-	.	.
.	4D- 4F 4d-	.
6AAA- 6AA-	.	.
6AAA- 6AA-	4D- 4F 4d-	.
6GGGn 6GGn	.	.
.	4F 4d- 4f	.
6GGG 6GG	.	.
=30	=30	=30
*	*^	*
6GGGn 6GGn	2E- 2e-	4d-	.
6AAA- 6AA-	.	.	.
.	.	4c-	.
6AAA- 6AA-	.	.	.
6DD- 6D-	2F 2d-	4B-	.
6CC- 6C-	.	.	.
.	.	4A-	.
6CC- 6C-	.	.	.
*	*v	*v	*
=31	=31	=31
6CC- 6C-	2D- 2G- 2d-	.
6BBB- 6BB-	.	.
6BBB- 6BB-	.	.
6BBB- 6BB-	[2E- [2G- [2d- [2e-	.
6AAAn 6AAn	.	.
6AAA 6AA	.	.
=32	=32	=32
2AAAn 2AAn	6E-] 6G-] 6d-] 6e-]	.
*	*clefG2	*
.	6F 6d- 6f	.
.	6G- 6d- 6g-	.
4BBB- 4BB-	6d- 6g- 6dd-	.
.	6A- 6d- 6a-	.
4BBB-- 4BB--	.	.
.	6G- 6d- 6g-	.
*	*clefF4	*
!!LO:LB:g=original
=33	=33	=33
6BBB-- 6BB--	4F 4d- 4f	.
6AAA- 6AA-	.	.
.	4D- 4F 4d-	.
6AAA- 6AA-	.	.
6AAA- 6AA-	4D- 4F 4d-	.
6GGGn 6GGn	.	.
.	4F 4d- 4f	.
6GGG 6GG	.	.
=34	=34	=34
*	*^	*
6GGGn 6GGn	2E- 2e-	4d-	.
6AAA- 6AA-	.	.	.
.	.	4cn	.
6AAA- 6AA-	.	.	.
*	*v	*v	*
6AAA- 6AA-	[2F [2d- [2f	.
6DD- 6D-	.	.
6DD- 6D-	.	.
=35	=35	=35
6DD- 6D-	4F] 4d-] 4f]	.
6FF 6F	.	.
.	2Gn 2B- 2f 2gn	.
6FF 6F	.	.
6FF 6F	.	.
6DD- 6D-	.	.
.	4A- 4f 4a-	.
6DD- 6D-	.	.
*	*clefG2	*
=36	=36	=36
6DD- 6D-	2An 2f 2an	.
6CCn 6Cn	.	.
6CC 6C	.	.
6CC 6C	2cn 2f 2ccn	.
6AAAn 6AAn	.	.
6AAA 6AA	.	.
!!LO:LB:g=original
=37	=37	=37
6AAAn 6AAn	2d- 2f 2dd-	.
6AAA-X 6AA-X	.	.
6AAA- 6AA-	.	.
*	*^	*
6AAA- 6AA-	2f	4cn 4ccn	.
6EE-- 6E--	.	.	.
.	.	4c-X 4cc-X	.
6EE-- 6E--	.	.	.
=38	=38	=38	=38
6EE-- 6E--	2f	4c- 4cc-	.
6DD- 6D-	.	.	.
.	.	4B- 4b-	.
6DD- 6D-	.	.	.
6DD- 6D-	2f	4B- 4b-	.
6CC- 6C-	.	.	.
.	.	4A- 4a-	.
6CC- 6C-	.	.	.
*	*v	*v	*
*	*clefF4	*
=39	=39	=39
6CC- 6C-	2D- 2G- 2d-	.
6BBB- 6BB-	.	.
6BBB- 6BB-	.	.
6BBB- 6BB-	[2E- [2G- [2d- [2e-	.
6AAAn 6AAn	.	.
6AAA 6AA	.	.
=40	=40	=40
2AAAn 2AAn	6E-] 6G-] 6d-] 6e-]	.
*	*clefG2	*
.	6F 6d- 6f	.
.	6G- 6d- 6g-	.
4BBB- 4BB-	6d- 6g- 6dd-	.
.	6A- 6d- 6a-	.
4BBB-- 4BB--	.	.
.	6G- 6d- 6g-	.
*	*clefF4	*
!!LO:LB:g=original
=41	=41	=41
6BBB-- 6BB--	4F 4d- 4f	.
6AAA- 6AA-	.	.
.	4D- 4F 4d-	.
6AAA- 6AA-	.	.
6AAA- 6AA-	4D- 4F 4d-	.
6GGGn 6GGn	.	.
.	4F 4d- 4f	.
6GGG 6GG	.	.
=42	=42	=42
6GGGn 6GGn	4En 4B- 4en	.
6GGG-X 6GG-X	.	.
.	4Cn 4B- 4cn	.
6GGG- 6GG-	.	.
6GGG- 6GG-	4C 4B- 4c	.
6Cn	.	.
.	4E 4B- 4e	.
6C	.	.
=43	=43	=43
6Cn	4F 4An 4f	.
6FF	.	.
.	4F 4A 4cn	.
6FFF	.	.
6E-	4F 4A 4c	.
6FF	.	.
.	4F 4A 4f	.
6FFF	.	.
=44	=44	=44
6D-	4G- 4B- 4f	.
6FF	.	.
.	4G- 4B- 4d-	.
6FFF	.	.
6F	4G- 4B- 4d-	.
6FF	.	.
.	4G- 4B- 4a-	.
6FFF	.	.
!!LO:LB:g=original
=45||	=45||	=45||
*k[b-e-a-d-g-]	*k[b-e-a-d-g-]	*
*Xtuplet	*	*
12CL	4F 4An 4f	.
12FF	.	.
12FFJ	.	.
12FFFL	4F 4A 4c	.
12FF	.	.
12FFJ	.	.
12E-L	4F 4A 4c	.
12FF	.	.
12FFJ	.	.
12FFFL	4F 4A 4f	.
12FF	.	.
12FFJ	.	.
=46	=46	=46
12D-L	4G- 4B- 4f	.
12FF	.	.
12FFJ	.	.
12FFFL	4G- 4B- 4d-	.
12FF	.	.
12FFJ	.	.
12FL	4G- 4B- 4d-	.
12FF	.	.
12FFJ	.	.
12FFFL	4G- 4B- 4f	.
12FF	.	.
12FFJ	.	.
=47	=47	=47
12CL	4F 4An 4f	.
12FF	.	.
12FFJ	.	.
12FFFL	4F 4A	.
12FF	.	.
12FFJ	.	.
12D-L	4G- 4B-	.
12FF	.	.
12FFJ	.	.
12FFFL	4G- 4B- 4f	.
12FF	.	.
12FFJ	.	.
!!LO:LB:g=original
=48	=48	=48
12DnL	4Gn 4Bn 4f	.
12FF	.	.
12FFJ	.	.
12FFFL	4G 4B	.
12FF	.	.
12FFJ	.	.
12E-L	4A- 4c	.
12FF	.	.
12FFJ	.	.
12FFFL	4A- 4c 4f	.
12FF	.	.
12FFJ	.	.
=49	=49	=49
12E-L	4An 4c 4f	.
12FF	.	.
12FFJ	.	.
12FFFL	4A 4c	.
12FF	.	.
12FFJ	.	.
12E-L	4A 4c	.
12FF	.	.
12E-J	.	.
*	*clefG2	*
12An	4f 4an 4ff	.
12E-\L	.	.
12FF	.	.
=50	=50	=50
12AnJ	4f 4an 4ff	.
12FL	.	.
12C	.	.
12e-J	2a 2ff 2aan	.
12FL	.	.
12C-X	.	.
12e-J	.	.
12AL	.	.
12F	.	.
12e-J	4a 4ff 4aa	.
12FL	.	.
12BB-	.	.
!!LO:LB:g=original
=51	=51	=51
12d-J	8b- 8ff 8bb-	.
12B-L	.	.
.	8r	.
12F	.	.
12d-J 12b-	8a- 8dd- 8aa-	.
12G-L	.	.
.	8r	.
12BB-	.	.
12d-J	8g- 8b- 8gg-	.
12B-L	.	.
.	8r	.
12G-	.	.
12d-J 12b-	8f 8dd- 8ff	.
12GnL	.	.
.	8r	.
12BB-	.	.
=52	=52	=52
12cJ	8en 8b- 8een	.
12B-L	.	.
.	8r	.
12Gn	.	.
12enJ	8c 8b- 8cc	.
12G-XL	.	.
.	8r	.
12BB-	.	.
12c-XJ	8e-X 8an 8ee-X	.
12AnL	.	.
.	8r	.
12G-	.	.
12e-XJ	8c-X 8a 8cc-X	.
12FL	.	.
.	8r	.
12BB-	.	.
=53	=53	=53
12B-J	8d- 8b- 8dd-	.
12B-L	.	.
.	8r	.
12F	.	.
12fJ	8d- 8a-X 8dd-	.
12BB-L	.	.
.	8r	.
12EEn	.	.
12G-J	8d- 8b- 8dd-	.
12G-L	.	.
.	8r	.
12D-	.	.
12d-J	8cn 8g- 8ccn	.
12BB-L	.	.
.	8r	.
12FF	.	.
!!LO:LB:g=original
=54	=54	=54
12G-J	4d- 4b- 4dd-	.
12FL	.	.
12D-	.	.
12d-J	4c 4f 4cc	.
12BB-\L	.	.
12GG-	.	.
12G-J	4B- 4en 4b-	.
12EnL	.	.
12C	.	.
12cJ	4r	.
12FFL	.	.
12BBB-	.	.
=55	=55	=55
12D-J	8b- 8ff 8bb-	.
12B-L	.	.
.	8r	.
12F	.	.
12d-J 12b-	8a- 8dd- 8aa-	.
12G-L	.	.
.	8r	.
12BB-	.	.
12d-J	8g- 8b- 8gg-	.
12B-L	.	.
.	8r	.
12G-	.	.
12d-J 12b-	8f 8dd- 8ff	.
12GnL	.	.
.	8r	.
12BB-	.	.
=56	=56	=56
12cJ	8en 8b- 8een	.
12B-L	.	.
.	8r	.
12Gn	.	.
12enJ	8c 8b- 8cc	.
12G-XL	.	.
.	8r	.
12BB-	.	.
12c-XJ	8e-X 8an 8ee-X	.
12AnL	.	.
.	8r	.
12G-	.	.
12e-XJ	8c-X 8a 8cc-X	.
12FL	.	.
.	8r	.
12BB-	.	.
!!LO:LB:g=original
=57	=57	=57
12B-J	4d- 4b- 4dd-	.
12B-L	.	.
12F	.	.
12fJ	4d- 4a-X 4dd-	.
12D-L	.	.
12BB--	.	.
12B--J	4d- 4g- 4dd-	.
12G-L	.	.
12D-	.	.
12d-J	4e- 4dd- 4ee-	.
12D-L	.	.
12AA-	.	.
=58	=58	=58
12A-J	4f 4dd- 4ff	.
12A-L	.	.
12D-	.	.
12d-J	4e- 4a- 4ee-	.
12D-L	.	.
12BB--	.	.
12B--J	2d- 2g- 2dd-	.
12G-L	.	.
12D-	.	.
12d-J	.	.
12D-L	.	.
12AA-	.	.
=59	=59	=59
12A-J	8f 8dd- 8ff	.
12A-L	.	.
.	8r	.
12D-	.	.
12d-J	8e- 8a- 8ee-	.
12D-L	.	.
.	8r	.
12AA-	.	.
12A-J	8f 8dd- 8ff	.
12A-L	.	.
.	8r	.
12D-	.	.
12d-J	8e- 8a- 8ee-	.
=||	=||	=||
*k[]	*k[]	*
12C#XL	.	.
.	8r	.
12FF#X	.	.
!!LO:LB:g=original
=60	=60	=60
12AJ	8e#X 8cc#X 8ee#X	.
12AL	.	.
.	8r	.
12D#X	.	.
12c#XJ	8d#X 8a 8dd#X	.
12C#X\L	.	.
.	8r	.
12FF#X	.	.
12AJ	8c#X 8a 8cc#	.
12AL	.	.
.	8r	.
12D#	.	.
12d#XJ	8B#X 8f#X 8b#X	.
12AAL	.	.
.	8r	.
12EE	.	.
=61	=61	=61
12EJ	8c#X 8a 8cc#X	.
12E/L	.	.
.	8r	.
12AA	.	.
12AJ	8Bn 8e 8bn	.
12AAL	.	.
.	8r	.
12EE	.	.
12EJ	8c# 8a 8cc#	.
12E/L	.	.
.	8r	.
12AA	.	.
12AJ	8B 8e 8b	.
12AAL	.	.
.	8r	.
12DD	.	.
=62	=62	=62
12FJ	8c#X 8a 8cc#X	.
12FL	.	.
.	8r	.
12BB	.	.
12AJ	8B 8f 8b	.
12AAL	.	.
.	8r	.
12DD	.	.
12FJ	8A 8f 8a	.
12FL	.	.
.	8r	.
12BB	.	.
12BJ	8G#X 8d 8g#X	.
12CnL	.	.
.	8r	.
12CC	.	.
!!LO:LB:g=original
=63||	=63||	=63||
*k[b-e-a-d-g-]	*k[b-e-a-d-g-]	*
12FJ	8An 8f 8an	.
12FL	.	.
.	8r	.
12C	.	.
12cJ	8c 8a 8cc	.
12CL	.	.
.	8r	.
12FF	.	.
12FJ	8f 8a 8ff	.
12FL	.	.
.	8r	.
12C	.	.
12cJ	8f 8a 8ff	.
12D-L	.	.
.	8r	.
12CC	.	.
=64	=64	=64
12G-J	8f 8dd- 8ff	.
12E-L	.	.
.	8r	.
12D-	.	.
12d-J	8e- 8b- 8ee-	.
12D-\L	.	.
.	8r	.
12FF	.	.
12G-J	8d- 8b- 8dd-	.
12E-L	.	.
.	8r	.
12D-	.	.
12d-J	8B- 8g- 8b-	.
12CL	.	.
.	8r	.
12CC	.	.
=65	=65	=65
12FJ	8An 8f 8an	.
12FL	.	.
.	8r	.
12C	.	.
12cJ	8c 8a 8cc	.
12CL	.	.
.	8r	.
12FF	.	.
12FJ	8f 8a 8ff	.
12FL	.	.
.	8r	.
12C	.	.
12cJ	8f 8a 8ff	.
12FL	.	.
.	8r	.
12C-X	.	.
!!LO:LB:g=original
=66	=66	=66
12e-J	4f 4an 4ff	.
12AnL	.	.
12F	.	.
12e-J	2a 2ff 2aan	.
12FL	.	.
12C-X	.	.
12e-J	.	.
12AL	.	.
12F	.	.
12e-J	4a 4ff 4aa	.
12FL	.	.
12BB-	.	.
=67	=67	=67
12d-J	8b- 8ff 8bb-	.
12B-L	.	.
.	8r	.
12F	.	.
12d-J 12b-	8a- 8dd- 8aa-	.
12G-L	.	.
.	8r	.
12BB-	.	.
12d-J	8g- 8b- 8gg-	.
12B-L	.	.
.	8r	.
12G-	.	.
12d-J 12b-	8f 8dd- 8ff	.
12GnL	.	.
.	8r	.
12BB-	.	.
=68	=68	=68
12cJ	8en 8b- 8een	.
12B-L	.	.
.	8r	.
12Gn	.	.
12enJ	8c 8b- 8cc	.
12G-XL	.	.
.	8r	.
12BB-	.	.
12c-XJ	8e-X 8an 8ee-X	.
12AnL	.	.
.	8r	.
12G-	.	.
12e-XJ	8c-X 8a 8cc-X	.
12FL	.	.
.	8r	.
12BB-	.	.
!!LO:LB:g=original
=69	=69	=69
12B-J	8d- 8b- 8dd-	.
12B-L	.	.
.	8r	.
12F	.	.
12fJ	8d- 8a- 8dd-	.
12BB-L	.	.
.	8r	.
12EEn	.	.
12G-J	8d- 8b- 8dd-	.
12G-L	.	.
.	8r	.
12D-	.	.
12d-J	8c 8g- 8cc	.
12BB-L	.	.
.	8r	.
12FF	.	.
=70	=70	=70
12G-J	8d- 8b- 8dd-	.
12FL	.	.
.	8r	.
12D-	.	.
12d-J	8c 8f 8cc	.
12BB-L	.	.
.	8r	.
12GG-	.	.
12G-J	8d- 8b- 8dd-	.
12EnL	.	.
.	8r	.
12C	.	.
12cJ	8c 8en 8cc	.
12FFL	.	.
.	8r	.
12BBB-	.	.
=71	=71	=71
12D-J	8B- 8f 8b-	.
12BB-L	.	.
.	8r	.
12FF	.	.
12FJ	8A- 8d- 8a-	.
12EE-L	.	.
.	8r	.
12BBB-	.	.
12BB-J	8G- 8d- 8g-	.
12BB-L	.	.
.	8r	.
12FF	.	.
12FJ	8F 8B- 8f	.
12FFL	.	.
.	8r	.
12BBB-	.	.
*	*clefF4	*
!!LO:LB:g=original
=72	=72	=72
12BB-J	8D- 8B- 8d-	.
12BB-L	.	.
.	8r	.
12FF	.	.
12FJ	8D- 8B-	.
12FFL	.	.
.	8r	.
12BBB-	.	.
12BB-J	8D- 8B- 8d-	.
12BB-L	.	.
.	8r	.
12FF	.	.
12FJ	8D- 8B-	.
12FFL	.	.
.	8r	.
12BBB-	.	.
*	*clefG2	*
=73	=73	=73
12D-J	8B- 8f 8b-	.
12BB-L	.	.
.	8r	.
12FF	.	.
12FJ	8A- 8d- 8a-	.
12EE-L	.	.
.	8r	.
12BBB-	.	.
12BB-J	8G- 8d- 8g-	.
12BB-L	.	.
.	8r	.
12FF	.	.
12FJ	8F 8B- 8f	.
12FFL	.	.
.	8r	.
12BBB-	.	.
*	*clefF4	*
=74	=74	=74
12BB-J	8D- 8B- 8d-	.
12BB-L	.	.
.	8r	.
12FF	.	.
12FJ	8D- 8B-	.
12FFL	.	.
.	8r	.
12BBB-	.	.
12BB-J	8D- 8B- 8d-	.
12BB-L	.	.
.	8r	.
12FF	.	.
12FJ	8D- 8B-	.
12r	.	.
.	8r	.
12r	.	.
!!LO:LB:g=original
=75	=75	=75
4r	4r	.
12r	4r	.
12FFL	.	.
12BBB-	.	.
12BB-J	8D- 8B- 8d-	.
12BB-L	.	.
.	8r	.
12FF	.	.
12FJ	8D- 8B-	.
12r	.	.
.	8r	.
12r	.	.
=76	=76	=76
12r	4r	.
12FFL	.	.
12BBB-	.	.
12BB-J	8D- 8B- 8d-	.
12r	.	.
.	8r	.
12r	.	.
12r	4r	.
12BB-L	.	.
12FF	.	.
12FJ	8D- 8B-	.
12r	.	.
.	8r	.
12r	.	.
=77	=77	=77
4BBBB- 4BBB-	1r	.
4r	.	.
2r	.	.
==	==	==
*-	*-	*-
!!!system-decoration: {(*)}
!!!filter: flipper -a
!!!ENC: Bryan Jacob Bell
!!!END: November 2021 to April 2022
!!!PED: Konstantin Igumnov and Yakov Milstein
!!!PTL: A.N. Skryabin: Polnoe sobranie sochinenii dlia fortepiano (Muzgiz)
